resources/haticons/SVG/npm2.svg

<!-- Generated by IcoMoon.io -->
<svg version="1.1" xmlns="http://www.w3.org/2000/svg" width="24" height="24" viewBox="0 0 24 24">
<title>npm2</title>
<path fill="#cb3837" d="M0 7.334v8h6.666v1.332h5.334v-1.332h12v-8zM6.666 13.998h-1.332v-4h-1.335v4h-2.664v-5.331h5.331zM10.666 13.998v1.336h-2.665v-6.667h5.334v5.332h-2.669zM22.667 13.998h-1.33v-4h-1.336v4h-1.335v-4h-1.33v4h-2.671v-5.331h8.002zM10.665 10h1.335v2.667h-1.335z"></path>
</svg>

<svg xmlns="http://www.w3.org/2000/svg" width="24" height="24"><path fill="#cb3837" d="M0 7.334v8h6.666v1.332H12v-1.332h12v-8zm6.666 6.664H5.334v-4H3.999v4H1.335V8.667h5.331zm4 0v1.336H8.001V8.667h5.334v5.332h-2.669zm12.001 0h-1.33v-4h-1.336v4h-1.335v-4h-1.33v4h-2.671V8.667h8.002zM10.665 10H12v2.667h-1.335z"/></svg>
